image/icon/Fort_red.svg

<?xml version="1.0" encoding="UTF-8" standalone="no"?>
<!-- Created with Inkscape (http://www.inkscape.org/) -->

<svg
   xmlns:dc="http://purl.org/dc/elements/1.1/"
   xmlns:cc="http://creativecommons.org/ns#"
   xmlns:rdf="http://www.w3.org/1999/02/22-rdf-syntax-ns#"
   xmlns:svg="http://www.w3.org/2000/svg"
   xmlns="http://www.w3.org/2000/svg"
   version="1.1"
   width="26.074337"
   height="41.999977"
   viewBox="0 0 26.074337 41.999977"
   id="svg3175"
   style="overflow:visible">
  <metadata
     id="metadata3191">
    <rdf:RDF>
      <cc:Work
         rdf:about="">
        <dc:format>image/svg+xml</dc:format>
        <dc:type
           rdf:resource="http://purl.org/dc/dcmitype/StillImage" />
        <dc:title></dc:title>
      </cc:Work>
    </rdf:RDF>
  </metadata>
  <defs
     id="defs3177" />
  <g
     transform="matrix(0.08203125,0,0,0.08203125,11.985755,19.273094)"
     id="g3181">
    <g
       transform="matrix(12.688965,0,0,12.688965,12.5,20.1)"
       id="g3183">
      <path
         d="m 7.5,-14.75 -2.9,0 0,-3.35 -3.1,0 0,3.35 -2.9,0 0,-3.35 -3.1,0 0,3.35 -2.9,0 0,-3.35 -3.1,0 0,6.45 2.45,2.95 0,20.05 8,6.35 8.15,-6.35 0,-20.05 2.45,-2.95 0,-6.45 -3.05,0 0,3.35 z m -20,-5.35 25.05,0 0,9.2 -2.45,2.95 0,20.25 -10.15,7.95 -10,-7.95 0,-20.25 -2.45,-2.95 0,-9.2 z m 11.7,13.7 1.8,0 0,3.4 -1.8,0 0,-3.4 z m 4.5,3.4 0,-3.4 1.8,0 0,3.4 -1.8,0 z m -9.1,0 0,-3.4 1.75,0 0,3.4 -1.75,0 z"
         id="path3185"
         style="fill:#000000;stroke-linecap:round;stroke-linejoin:round" />
      <path
         d="m 4.5395728,-14.55782 2.8616963,0 0,-3.305753 3.0097139,0 0,6.364806 -2.4176387,2.9110363 0,19.7851777 -8.0423537,6.266126 -7.8943349,-6.266126 0,-19.7851777 -2.4176387,-2.9110363 0,-6.364806 3.0590536,0 0,3.305753 2.8616963,0 0,-3.305753 3.0590548,0 0,3.305753 2.8616963,0 0,-3.305753 3.0590548,0 0,3.305753 z m -3.55245075,8.2397104 -1.77622533,0 0,3.3550924 1.77622533,0 0,-3.3550924 z m 2.66433795,0 0,3.3550924 1.7762253,0 0,-3.3550924 -1.7762253,0 z m -8.9798059,0 0,3.3550924 1.7268859,0 0,-3.3550924 -1.7268859,0 z"
         id="path3187"
         style="fill:#3b81f7;stroke-linecap:round;stroke-linejoin:round" />
    </g>
  </g>
</svg>

<!--version="1.0" encoding="UTF-8" standalone="no"--><!-- Created with Inkscape (http://www.inkscape.org/) --><svg xmlns="http://www.w3.org/2000/svg" version="1.1" width="26.074" height="42" viewBox="0 0 26.074 42" id="svg3175" style="overflow-x: visible; overflow-y: visible;"><g transform="matrix(0.08203125,0,0,0.08203125,11.985755,19.273094)" id="g3181"><g transform="matrix(12.688965,0,0,12.688965,12.5,20.1)" id="g3183"><path d="M7.5-14.75H4.6v-3.35H1.5v3.35h-2.9v-3.35h-3.1v3.35h-2.9v-3.35h-3.1v6.45l2.45 2.95v20.05l8 6.35 8.15-6.35V-8.7l2.45-2.95v-6.45H7.5v3.35zm-20-5.35h25.05v9.2L10.1-7.95V12.3L-.05 20.25l-10-7.95V-7.95l-2.45-2.95v-9.2zM-.8-6.4H1V-3H-.8v-3.4zM3.7-3v-3.4h1.8V-3H3.7zM-5.4-3v-3.4h1.75V-3H-5.4z" id="path3185" style="fill: rgb(0, 0, 0); stroke-linecap: round; stroke-linejoin: round;"/><path d="M4.54-14.558H7.4l.001-3.306h3.01v6.365L7.994-8.587v19.785l-8.042 6.267-7.893-6.267V-8.588l-2.418-2.91v-6.366h3.058v3.306h2.862v-3.306h3.059l-.001 3.306h2.86v-3.306h3.06v3.306zM.987-6.318H-.789v3.355H.988v-3.355zm2.664 0 .001 3.355H5.43v-3.355H3.65zm-8.978 0v3.355h1.727l-.001-3.355H-5.33z" id="path3187" style="fill: rgb(59, 129, 247); stroke-linecap: round; stroke-linejoin: round;"/></g></g></svg>
